src/home/img/terminal.svg

<svg height="533" viewBox="0 0 947 533" width="947" xmlns="http://www.w3.org/2000/svg"><g fill="none" fill-rule="evenodd"><path d="m12 0h923c6.627417 0 12 5.372583 12 12v42.3541364h-947v-42.3541364c0-6.627417 5.372583-12 12-12z" fill="#2a2f45"/><path d="m0 51.2481858 947 .7269985v469.2730017c0 6.627417-5.372583 12-12 12h-923c-6.627417 0-12-5.372583-12-12zm62.694175-39.2481858c2.5831167 0 4.9997111.6945167 7.0737852 1.9075519 2.0740741 1.2130351 3.8056278 2.9445888 5.0186629 5.0186629 1.2130352 2.0740741 1.9075519 4.4906685 1.9075519 7.0737852s-.6945167 4.9997111-1.9075519 7.0737852c-1.2130351 2.0740741-2.9445888 3.8056278-5.0186629 5.0186629-2.0740741 1.2130352-4.4906685 1.9075519-7.0737852 1.9075519s-4.9997111-.6945167-7.0737852-1.9075519c-2.0740741-1.2130351-3.8056278-2.9445888-5.0186629-5.0186629-1.2130352-2.0740741-1.9075519-4.4906685-1.9075519-7.0737852s.6945167-4.9997111 1.9075519-7.0737852c1.2130351-2.0740741 2.9445888-3.8056278 5.0186629-5.0186629 2.0740741-1.2130352 4.4906685-1.9075519 7.0737852-1.9075519zm50.788835 0c2.583117 0 4.999711.6945167 7.073785 1.9075519 2.074074 1.2130351 3.805628 2.9445888 5.018663 5.0186629s1.907552 4.4906685 1.907552 7.0737852-.694517 4.9997111-1.907552 7.0737852-2.944589 3.8056278-5.018663 5.0186629c-2.074074 1.2130352-4.490668 1.9075519-7.073785 1.9075519s-4.999711-.6945167-7.073785-1.9075519c-2.074074-1.2130351-3.805628-2.9445888-5.018663-5.0186629s-1.907552-4.4906685-1.907552-7.0737852.694517-4.9997111 1.907552-7.0737852 2.944589-3.8056278 5.018663-5.0186629c2.074074-1.2130352 4.490668-1.9075519 7.073785-1.9075519zm52.820388 0c2.583117 0 4.999711.6945167 7.073785 1.9075519 2.074074 1.2130351 3.805628 2.9445888 5.018663 5.0186629s1.907552 4.4906685 1.907552 7.0737852-.694517 4.9997111-1.907552 7.0737852-2.944589 3.8056278-5.018663 5.0186629c-2.074074 1.2130352-4.490668 1.9075519-7.073785 1.9075519s-4.999711-.6945167-7.073785-1.9075519c-2.074074-1.2130351-3.805628-2.9445888-5.018663-5.0186629s-1.907552-4.4906685-1.907552-7.0737852.694517-4.9997111 1.907552-7.0737852 2.944589-3.8056278 5.018663-5.0186629c2.074074-1.2130352 4.490668-1.9075519 7.073785-1.9075519z" fill="#1a1f36"/><path d="m63 198h466c7.731986 0 14 6.268014 14 14s-6.268014 14-14 14h-466c-7.7319865 0-14-6.268014-14-14s6.2680135-14 14-14z" fill="#8792a2" opacity=".284"/><path d="m287 274h466c7.731986 0 14 6.268014 14 14s-6.268014 14-14 14h-466c-7.731986 0-14-6.268014-14-14s6.268014-14 14-14z" fill="#8792a2" opacity=".58"/><g fill="#fff"><path d="m254 120h83c7.731986 0 14 6.268014 14 14s-6.268014 14-14 14h-83c-7.731986 0-14-6.268014-14-14s6.268014-14 14-14z"/><path d="m180 120h36c7.731986 0 14 6.268014 14 14s-6.268014 14-14 14h-36c-7.731986 0-14-6.268014-14-14s6.268014-14 14-14z" transform="matrix(-1 0 0 1 396 0)"/><path d="m375 120h310c7.731986 0 14 6.268014 14 14s-6.268014 14-14 14h-310c-7.731986 0-14-6.268014-14-14s6.268014-14 14-14z"/></g><path d="m14 0h48c7.7319865 0 14 6.2680135 14 14s-6.2680135 14-14 14h-48c-7.7319865 0-14-6.2680135-14-14s6.2680135-14 14-14z" fill="#8792a2" opacity=".24" transform="translate(157 274)"/><g fill="#91bb54" transform="translate(47 364)"><path d="m14 0h103c7.731986 0 14 6.2680135 14 14s-6.268014 14-14 14h-103c-7.7319865 0-14-6.2680135-14-14s6.2680135-14 14-14zm141 0h43c7.731986 0 14 6.2680135 14 14s-6.268014 14-14 14h-43c-7.731986 0-14-6.2680135-14-14s6.268014-14 14-14z"/><path d="m235.230254 24.3540222c-.655757.7714793-1.812761.8652904-2.58424.209533s-.865291-1.8127614-.209533-2.5842407l15.583312-18.33330824c.666051-.78358948 1.846239-.86613617 2.614885-.18289473l8.249989 7.33332327c.756767.6726822.824932 1.8314799.15225 2.5882473s-1.83148.8249319-2.588247.1522498l-6.849051-6.08804479z" fill-rule="nonzero" transform="matrix(-1 0 0 -1 491.5 28)"/></g><path d="m0 32.76h4.94c1.612 2.912 4.836 4.888 9.048 4.888 4.888 0 8.268-2.548 8.268-5.72 0-3.328-2.132-4.836-6.708-5.408l-5.564-.728c-6.24-.832-9.1-4.368-9.1-9.308 0-5.408 3.692-9.412 10.192-10.192v-6.292h4.472v6.292c6.604.832 10.244 5.356 11.492 9.1h-4.94c-1.404-2.86-4.732-4.888-8.84-4.888-5.2 0-7.696 2.86-7.696 5.772 0 3.12 2.132 4.732 5.824 5.2l5.928.78c5.876.78 9.62 4.212 9.62 9.412 0 4.784-3.9 9.724-11.388 10.296v6.24h-4.472v-6.396c-6.552-.988-9.828-5.148-11.076-9.048zm80.94-4.576c1.716 0 2.444-1.248 2.444-4.368h4.16c0 5.356-2.392 8.528-6.552 8.528-4.108 0-6.968-4.368-9.464-4.368-1.716 0-2.444 1.248-2.444 4.368h-4.16c0-5.252 2.34-8.528 6.552-8.528 4.16 0 7.124 4.368 9.464 4.368z" fill="#fff" fill-opacity=".417" fill-rule="nonzero" transform="translate(48.392 109.66)"/></g></svg>

<svg xmlns="http://www.w3.org/2000/svg" width="947" height="533" viewBox="0 0 947 533">
  <g fill="none" fill-rule="evenodd">
    <path fill="#2A2F45" d="M12,0 L935,0 C941.627417,6.35321796e-14 947,5.372583 947,12 L947,54.3541364 L947,54.3541364 L0,54.3541364 L0,12 C-8.11624501e-16,5.372583 5.372583,1.21743675e-15 12,0 Z"/>
    <path fill="#1A1F36" d="M0 51.2481858L947 51.9751843 947 521.248186C947 527.875603 941.627417 533.248186 935 533.248186L12 533.248186C5.372583 533.248186 8.11624501e-16 527.875603 0 521.248186L0 51.2481858 0 51.2481858zM62.694175 12C65.2772917 12 67.6938861 12.6945167 69.7679602 13.9075519 71.8420343 15.120587 73.573588 16.8521407 74.7866231 18.9262148 75.9996583 21.0002889 76.694175 23.4168833 76.694175 26 76.694175 28.5831167 75.9996583 30.9997111 74.7866231 33.0737852 73.573588 35.1478593 71.8420343 36.879413 69.7679602 38.0924481 67.6938861 39.3054833 65.2772917 40 62.694175 40 60.1110583 40 57.6944639 39.3054833 55.6203898 38.0924481 53.5463157 36.879413 51.814762 35.1478593 50.6017269 33.0737852 49.3886917 30.9997111 48.694175 28.5831167 48.694175 26 48.694175 23.4168833 49.3886917 21.0002889 50.6017269 18.9262148 51.814762 16.8521407 53.5463157 15.120587 55.6203898 13.9075519 57.6944639 12.6945167 60.1110583 12 62.694175 12zM113.48301 12C116.066127 12 118.482721 12.6945167 120.556795 13.9075519 122.630869 15.120587 124.362423 16.8521407 125.575458 18.9262148 126.788493 21.0002889 127.48301 23.4168833 127.48301 26 127.48301 28.5831167 126.788493 30.9997111 125.575458 33.0737852 124.362423 35.1478593 122.630869 36.879413 120.556795 38.0924481 118.482721 39.3054833 116.066127 40 113.48301 40 110.899893 40 108.483299 39.3054833 106.409225 38.0924481 104.335151 36.879413 102.603597 35.1478593 101.390562 33.0737852 100.177527 30.9997111 99.48301 28.5831167 99.48301 26 99.48301 23.4168833 100.177527 21.0002889 101.390562 18.9262148 102.603597 16.8521407 104.335151 15.120587 106.409225 13.9075519 108.483299 12.6945167 110.899893 12 113.48301 12zM166.303398 12C168.886515 12 171.303109 12.6945167 173.377183 13.9075519 175.451257 15.120587 177.182811 16.8521407 178.395846 18.9262148 179.608881 21.0002889 180.303398 23.4168833 180.303398 26 180.303398 28.5831167 179.608881 30.9997111 178.395846 33.0737852 177.182811 35.1478593 175.451257 36.879413 173.377183 38.0924481 171.303109 39.3054833 168.886515 40 166.303398 40 163.720281 40 161.303687 39.3054833 159.229613 38.0924481 157.155539 36.879413 155.423985 35.1478593 154.21095 33.0737852 152.997915 30.9997111 152.303398 28.5831167 152.303398 26 152.303398 23.4168833 152.997915 21.0002889 154.21095 18.9262148 155.423985 16.8521407 157.155539 15.120587 159.229613 13.9075519 161.303687 12.6945167 163.720281 12 166.303398 12z"/>
    <path fill="#8792A2" d="M63,198 L529,198 C536.731986,198 543,204.268014 543,212 C543,219.731986 536.731986,226 529,226 L63,226 C55.2680135,226 49,219.731986 49,212 C49,204.268014 55.2680135,198 63,198 Z" opacity=".284"/>
    <path fill="#8792A2" d="M287,274 L753,274 C760.731986,274 767,280.268014 767,288 C767,295.731986 760.731986,302 753,302 L287,302 C279.268014,302 273,295.731986 273,288 C273,280.268014 279.268014,274 287,274 Z" opacity=".58"/>
    <path fill="#FFF" d="M254,120 L337,120 C344.731986,120 351,126.268014 351,134 C351,141.731986 344.731986,148 337,148 L254,148 C246.268014,148 240,141.731986 240,134 C240,126.268014 246.268014,120 254,120 Z"/>
    <path fill="#FFF" d="M180,120 L216,120 C223.731986,120 230,126.268014 230,134 C230,141.731986 223.731986,148 216,148 L180,148 C172.268014,148 166,141.731986 166,134 C166,126.268014 172.268014,120 180,120 Z" transform="matrix(-1 0 0 1 396 0)"/>
    <path fill="#FFF" d="M375,120 L685,120 C692.731986,120 699,126.268014 699,134 C699,141.731986 692.731986,148 685,148 L375,148 C367.268014,148 361,141.731986 361,134 C361,126.268014 367.268014,120 375,120 Z"/>
    <path fill="#8792A2" d="M14,0 L62,0 C69.7319865,-1.42034288e-15 76,6.2680135 76,14 C76,21.7319865 69.7319865,28 62,28 L14,28 C6.2680135,28 9.46895252e-16,21.7319865 0,14 C-9.46895252e-16,6.2680135 6.2680135,-2.1323708e-15 14,0 Z" opacity=".24" transform="translate(157 274)"/>
    <g fill="#91BB54" transform="translate(47 364)">
      <path d="M14 0L117 0C124.731986-1.42034288e-15 131 6.2680135 131 14 131 21.7319865 124.731986 28 117 28L14 28C6.2680135 28 9.46895252e-16 21.7319865 0 14-9.46895252e-16 6.2680135 6.2680135 1.42034288e-15 14 0zM155 0L198 0C205.731986-1.42034288e-15 212 6.2680135 212 14 212 21.7319865 205.731986 28 198 28L155 28C147.268014 28 141 21.7319865 141 14 141 6.2680135 147.268014 3.19669972e-15 155 0z"/>
      <path fill-rule="nonzero" d="M235.230254,24.3540222 C234.574497,25.1255015 233.417493,25.2193126 232.646014,24.5635552 C231.874535,23.9077978 231.780723,22.7507938 232.436481,21.9793145 L248.019793,3.64600626 C248.685844,2.86241678 249.866032,2.77987009 250.634678,3.46311153 L258.884667,10.7964348 C259.641434,11.469117 259.709599,12.6279147 259.036917,13.3846821 C258.364235,14.1414495 257.205437,14.209614 256.44867,13.5369319 L249.599619,7.44888711 L235.230254,24.3540222 Z" transform="rotate(-180 245.75 14)"/>
    </g>
    <path fill="#FFF" fill-opacity=".417" fill-rule="nonzero" d="M-1.42108547e-14,32.76 L4.94,32.76 C6.552,35.672 9.776,37.648 13.988,37.648 C18.876,37.648 22.256,35.1 22.256,31.928 C22.256,28.6 20.124,27.092 15.548,26.52 L9.984,25.792 C3.744,24.96 0.884,21.424 0.884,16.484 C0.884,11.076 4.576,7.072 11.076,6.292 L11.076,0 L15.548,0 L15.548,6.292 C22.152,7.124 25.792,11.648 27.04,15.392 L22.1,15.392 C20.696,12.532 17.368,10.504 13.26,10.504 C8.06,10.504 5.564,13.364 5.564,16.276 C5.564,19.396 7.696,21.008 11.388,21.476 L17.316,22.256 C23.192,23.036 26.936,26.468 26.936,31.668 C26.936,36.452 23.036,41.392 15.548,41.964 L15.548,48.204 L11.076,48.204 L11.076,41.808 C4.524,40.82 1.248,36.66 -1.42108547e-14,32.76 Z M80.94,28.184 C82.656,28.184 83.384,26.936 83.384,23.816 L87.544,23.816 C87.544,29.172 85.152,32.344 80.992,32.344 C76.884,32.344 74.024,27.976 71.528,27.976 C69.812,27.976 69.084,29.224 69.084,32.344 L64.924,32.344 C64.924,27.092 67.264,23.816 71.476,23.816 C75.636,23.816 78.6,28.184 80.94,28.184 Z" transform="translate(48.392 109.66)"/>
  </g>
</svg>
